!!!OTL: Zwolf Variationen in Es, uber die Romanze 'Je suis Lindor' aus der Komodie 'Le Barbier de Seville'
!!!Variation: Variation 10 c
!!!COM: Mozart
**function	**harm	**kern	**kern
*M2/4	*M2/4	*staff2	*staff1
*Eb:	*Eb:	*clefF4	*clefG2
*tb32	*	*k[b-e-a-]	*k[b-e-a-]
*	*	*M2/4	*M2/4
*	*	*Eb:	*Eb:
=-	=-	=-	=-
2D	4.V	32BBB-LLL	4d 4f
.	.	32BB-	.
.	.	32BBB-	.
.	.	32BB-JJ	.
.	.	32BBB-LL	.
.	.	32BB-	.
.	.	32BBB-	.
.	.	32BB-JJJ	.
.	.	32BBB-LLL	(8dL 8f
.	.	32BB-	.
.	.	32BBB-	.
.	.	32BB-JJ	.
.	8V7	32BBB-LL	8fJ) 8a-
.	.	32BB-	.
.	.	32BBB-	.
.	.	32BB-JJJ	.
=	=	=230	=230
*	*	*	*^
2D	2viioD7/V	32AAALLL	(8a-	4.c 4.e-
.	.	32AA	.	.
.	.	32AAA	.	.
.	.	32AAJJ	.	.
.	.	32AAALL	4g-	.
.	.	32AA	.	.
.	.	32AAA	.	.
.	.	32AAJJJ	.	.
.	.	32AAALLL	.	.
.	.	32AA	.	.
.	.	32AAA	.	.
.	.	32AAJJ	.	.
.	.	32AAALL	16fLL	8r
.	.	32AA	.	.
.	.	32AAA	16e-JJ)	.
.	.	32AAJJJ	.	.
*	*	*	*v	*v
=	=	=231	=231
4D	4V	32BBB-LLL	8dL 8b-
.	.	32BB-	.
.	.	32BBB-	.
.	.	32BB-JJ	.
.	.	32BBB-LL	8fJ
.	.	32BB-	.
.	.	32BBB-	.
.	.	32BB-JJJ	.
4D	4viioD7/vi	32BBBLLL	(8dL 8f
.	.	32BB	.
.	.	32BBB	.
.	.	32BBJJ	.
.	.	32BBBLL	8fJ) 8a-
.	.	32BB	.
.	.	32BBB	.
.	.	32BBJJJ	.
=	=	=232	=232
4.D	4.vi	32CCLLL	(8d 8f 8a-
.	.	32C	.
.	.	32CC	.
.	.	32CJJ	.
.	.	32CCLL	4e-) 4g
.	.	32C	.
.	.	32CC	.
.	.	32CJJJ	.
.	.	32CCLLL	.
.	.	32C	.
.	.	32CC	.
.	.	32CJJ	.
8D	8viioD7b/V	32CCLL	8g- 8a 8ee-
.	.	32C	.
.	.	32CC	.
.	.	32CJJJ	.
=	=	=233	=233
*	*	*	*^
2D	2V7	32BBB-LLL	(8ee-	2f 2a-
.	.	32BB-	.	.
.	.	32BBB-	.	.
.	.	32BB-JJ	.	.
.	.	32BBB-LL	4dd	.
.	.	32BB-	.	.
.	.	32BBB-	.	.
.	.	32BB-JJJ	.	.
.	.	32BBB-LLL	.	.
.	.	32BB-	.	.
.	.	32BBB-	.	.
.	.	32BB-JJ	.	.
.	.	32BBB-LL	16ccLL	.
.	.	32BB-	.	.
.	.	32BBB-	16b-JJ)	.
.	.	32BB-JJJ	.	.
=	=	=234	=234	=234
2D	2V7d	32AAA-LLL	(8ee-	2f 2b-
.	.	32AA-	.	.
.	.	32AAA-	.	.
.	.	32AA-JJ	.	.
.	.	32AAA-LL	4dd	.
.	.	32AA-	.	.
.	.	32AAA-	.	.
.	.	32AA-JJJ	.	.
.	.	32AAA-LLL	.	.
.	.	32AA-	.	.
.	.	32AAA-	.	.
.	.	32AA-JJ	.	.
.	.	32AAA-LL	16ccLL	.
.	.	32AA-	.	.
.	.	32AAA-	16b-JJ)	.
.	.	32AA-JJJ	.	.
=	=	=235	=235	=235
4T	4Ib	(16GGGLL	(8ee-L	4.e-
.	.	16BBB-	.	.
.	.	16EE-	8b-J)	.
.	.	16GGJJ	.	.
4P	4iib	16AAA-LL	(16ddLL	.
.	.	16CC	16cc	.
.	.	16FF	16b-	8f
.	.	16AA-JJ	16a-JJ)	.
*	*	*	*v	*v
=	=	=236	=236
4D	4C64	16BBB-LL	(4e- 4g
.	.	16EE-	.
.	.	16GG	.
.	.	16BB-JJ	.
4D	4V	16BBB-LL	8dL) 8f
.	.	16DD	.
.	.	16FF	8b-J
.	.	16BB-JJ)	.
=	=	=237	=237
2T	2I	(16E-LL	(4d 4f 4a-
.	.	16D	.
.	.	16E-	.
.	.	16DJJ	.
.	.	16E-LL	8e-L) 8g
.	.	16BB-	.
.	.	16GG	8b-J
.	.	16EE-JJ)	.
=	=	=	=
*-	*-	*-	*-
